2/images/skout-bottom.svg

<svg width="169" height="59" viewBox="0 0 169 59" fill="none" xmlns="http://www.w3.org/2000/svg">
<mask id="mask0" mask-type="alpha" maskUnits="userSpaceOnUse" x="23" y="49" width="10" height="10">
<path fill-rule="evenodd" clip-rule="evenodd" d="M23.875 49.8962H32.3602V58.9814H23.875V49.8962Z" fill="white"/>
</mask>
<g mask="url(#mask0)">
<path fill-rule="evenodd" clip-rule="evenodd" d="M32.3602 51.8611L30.8345 52.7809C30.3262 52.0239 29.5315 51.5731 28.5335 51.5731C26.9256 51.5731 25.7251 52.7365 25.7251 54.4386C25.7251 56.1964 26.9645 57.3042 28.5335 57.3042C29.5253 57.3042 30.32 56.8726 30.8539 56.1033L32.3027 57.1293C31.5019 58.2675 30.1803 58.9819 28.5468 58.9819C25.8012 58.9819 23.875 57.0727 23.875 54.4386C23.875 51.8046 25.8012 49.8962 28.5468 49.8962C30.1927 49.8962 31.6291 50.6411 32.3602 51.8611Z" fill="#7F7F7F"/>
</g>
<path fill-rule="evenodd" clip-rule="evenodd" d="M38.5045 58.9815H36.6776V55.1997L33.1484 49.4094H35.296L37.6011 53.4709L39.9061 49.4094H41.9881L38.5045 55.2073V58.9815Z" fill="#7F7F7F"/>
<path fill-rule="evenodd" clip-rule="evenodd" d="M45.8316 57.2995L47.6634 57.3062C48.57 57.3062 49.1314 57.0599 49.1314 56.1433C49.1314 55.2409 48.57 55.0023 47.6634 55.0023H45.8316V57.2995ZM45.8316 53.3269H47.5055C48.3185 53.3269 48.9508 53.1291 48.9508 52.1992C48.9508 51.3025 48.3071 51.0924 47.499 51.0924H45.8316V53.3269ZM50.6532 52.0623C50.6532 53.0264 50.1438 53.8052 49.4651 54.0933C50.2146 54.3871 50.829 55.2077 50.829 56.2393C50.829 58.0716 49.7117 58.9815 47.7456 58.9815H44.1992V49.4094H47.5462C49.4537 49.4094 50.6532 50.2367 50.6532 52.0623Z" fill="#7F7F7F"/>
<path fill-rule="evenodd" clip-rule="evenodd" d="M54.5117 58.9815V49.4094H61.0912V51.1591H56.28V53.2797H60.8691V55.0304H56.28V57.2309H61.1415V58.9815H54.5117Z" fill="#7F7F7F"/>
<path fill-rule="evenodd" clip-rule="evenodd" d="M66.495 53.5118H68.339C69.2552 53.5118 69.7224 53.1352 69.7224 52.3221C69.7224 51.5215 69.2318 51.1658 68.339 51.1658H66.495V53.5118ZM71.4414 52.3221C71.4414 53.894 70.4836 54.96 68.872 55.1454L71.4539 58.9815H69.4292L66.9863 55.173H66.495V58.9815H64.8242V49.4094H68.3689C70.3695 49.4094 71.4414 50.4887 71.4414 52.3221Z" fill="#7F7F7F"/>
<path fill-rule="evenodd" clip-rule="evenodd" d="M77.5719 51.1138C76.5835 51.1138 75.8743 51.5227 75.8743 52.2237C75.8743 52.8972 76.6407 53.1159 77.7049 53.2941L78.2053 53.3796C79.7954 53.6442 81.0304 54.3645 81.0304 55.9697C81.0304 58.0039 79.3073 58.9815 77.401 58.9815C76.0514 58.9815 74.6137 58.5727 73.6641 57.7724L74.582 56.2867C75.2286 56.815 76.2611 57.2845 77.4072 57.2845C78.3956 57.2845 79.1488 56.8812 79.1488 56.1672C79.1488 55.5268 78.503 55.2953 77.268 55.084L76.7042 54.9921C75.1396 54.7284 73.9997 54.02 73.9997 52.3432C73.9997 50.4137 75.6462 49.4094 77.534 49.4094C78.7823 49.4094 79.8015 49.6998 80.923 50.3935L80.0861 51.8994C79.384 51.4501 78.5409 51.1138 77.5719 51.1138Z" fill="#7F7F7F"/>
<path fill-rule="evenodd" clip-rule="evenodd" d="M83.9766 58.9815V49.4094H90.556V51.1591H85.7448V53.2797H90.3338V55.0304H85.7448V57.2308H90.6062V58.9815H83.9766Z" fill="#7F7F7F"/>
<mask id="mask1" mask-type="alpha" maskUnits="userSpaceOnUse" x="93" y="49" width="9" height="10">
<path fill-rule="evenodd" clip-rule="evenodd" d="M93.1758 49.8962H101.532V58.9814H93.1758V49.8962Z" fill="white"/>
</mask>
<g mask="url(#mask1)">
<path fill-rule="evenodd" clip-rule="evenodd" d="M101.532 51.8611L100.03 52.7809C99.5292 52.0239 98.7466 51.5731 97.7637 51.5731C96.1801 51.5731 94.9979 52.7365 94.9979 54.4386C94.9979 56.1964 96.2184 57.3042 97.7637 57.3042C98.7405 57.3042 99.5231 56.8726 100.049 56.1033L101.476 57.1293C100.687 58.2675 99.3856 58.9819 97.7768 58.9819C95.0728 58.9819 93.1758 57.0727 93.1758 54.4386C93.1758 51.8046 95.0728 49.8962 97.7768 49.8962C99.3978 49.8962 100.812 50.6411 101.532 51.8611Z" fill="#7F7F7F"/>
</g>
<path fill-rule="evenodd" clip-rule="evenodd" d="M108.284 58.9815C106.11 58.9815 104.602 57.6577 104.602 55.0587V49.4094H106.312V54.9644C106.312 56.503 107.112 57.1878 108.284 57.1878C109.457 57.1878 110.258 56.503 110.258 54.9644V49.4094H111.968V55.0587C111.968 57.6577 110.459 58.9815 108.284 58.9815Z" fill="#7F7F7F"/>
<path fill-rule="evenodd" clip-rule="evenodd" d="M117.323 53.5118H119.167C120.083 53.5118 120.551 53.1352 120.551 52.3221C120.551 51.5215 120.06 51.1658 119.167 51.1658H117.323V53.5118ZM122.27 52.3221C122.27 53.894 121.312 54.96 119.7 55.1455L122.282 58.9815H120.257L117.814 55.173H117.323V58.9815H115.652V49.4094H119.197C121.198 49.4094 122.27 50.4887 122.27 52.3221Z" fill="#7F7F7F"/>
<mask id="mask2" mask-type="alpha" maskUnits="userSpaceOnUse" x="0" y="0" width="169" height="59">
<path fill-rule="evenodd" clip-rule="evenodd" d="M0 58.9815H168.69V0.8125H0V58.9815Z" fill="white"/>
</mask>
<g mask="url(#mask2)">
<path fill-rule="evenodd" clip-rule="evenodd" d="M125.227 58.9815H126.7V49.4094H125.227V58.9815Z" fill="#7F7F7F"/>
<path fill-rule="evenodd" clip-rule="evenodd" d="M134.227 51.1943V58.9815H132.436V51.1943H129.648V49.4094H137.015V51.1943H134.227Z" fill="#7F7F7F"/>
<path fill-rule="evenodd" clip-rule="evenodd" d="M143.106 58.9815H141.279V55.1997L137.75 49.4094H139.897L142.202 53.4709L144.507 49.4094H146.59L143.106 55.2073V58.9815Z" fill="#7F7F7F"/>
<path fill-rule="evenodd" clip-rule="evenodd" d="M18.1608 15.7807L16.1619 15.4558C11.9033 14.7851 8.84081 13.9615 8.84081 11.4229C8.84081 8.78007 11.6778 7.23799 15.6261 7.23799C19.09 7.23799 22.1445 8.24751 24.756 9.66622L29.0288 4.52653C24.5447 1.91151 20.4691 0.8125 15.4785 0.8125C7.92578 0.8125 1.33761 4.59603 1.33761 11.866C1.33761 18.1942 5.89859 20.8578 12.1561 21.8535L14.4087 22.2001C19.3499 22.995 21.9402 23.8673 21.9402 26.2877C21.9402 28.9722 18.9211 30.4935 14.9719 30.4935C10.7274 30.4935 6.87726 28.9783 4.27983 27.1799L0 32.3405C3.80155 35.3491 9.54454 36.892 14.9436 36.892C22.5741 36.892 29.4655 33.2049 29.4655 25.5406C29.4655 19.4886 24.5235 16.7763 18.1608 15.7807Z" fill="#7F7F7F"/>
<path fill-rule="evenodd" clip-rule="evenodd" d="M50.1668 18.7888L65.1698 1.54883H56.2236L44.3944 15.8649H41.0226V1.54883H33.8867V36.892H41.0226V22.3522H44.3159L57.0467 36.892H66.2988L50.1668 18.7888Z" fill="#7F7F7F"/>
<path fill-rule="evenodd" clip-rule="evenodd" d="M129.264 1.54883V22.4904C129.264 28.2871 125.98 30.8687 121.172 30.8687C116.365 30.8687 113.088 28.2871 113.088 22.4904V1.54883H106.074V22.8421C106.074 32.6401 112.259 37.6283 121.172 37.6283C130.091 37.6283 136.276 32.6401 136.276 22.8421V1.54883H129.264Z" fill="#7F7F7F"/>
<path fill-rule="evenodd" clip-rule="evenodd" d="M139.961 1.54883V8.1356H150.829V36.892H157.821V8.1356H168.69V1.54883H139.961Z" fill="#7F7F7F"/>
<path fill-rule="evenodd" clip-rule="evenodd" d="M82.8753 29.8899C76.7753 29.8899 71.8349 24.9508 71.8349 18.8523C71.8349 12.7607 76.7753 7.8137 82.8753 7.8137C88.9684 7.8137 93.9096 12.7607 93.9096 18.8523C93.9096 24.9508 88.9684 29.8899 82.8753 29.8899ZM82.8753 0.8125C72.9035 0.8125 64.8242 8.88981 64.8242 18.8523C64.8242 28.8147 72.9035 36.892 82.8753 36.892C92.8402 36.892 100.919 28.8147 100.919 18.8523C100.919 8.88981 92.8402 0.8125 82.8753 0.8125Z" fill="#7F7F7F"/>
</g>
</svg>

<svg width="169" height="59" fill="none" xmlns="http://www.w3.org/2000/svg"><mask id="a" maskUnits="userSpaceOnUse" x="23" y="49" width="10" height="10"><path fill-rule="evenodd" clip-rule="evenodd" d="M23.9 49.9h8.5v9h-8.5v-9z" fill="#fff"/></mask><g mask="url(#a)"><path fill-rule="evenodd" clip-rule="evenodd" d="M32.4 51.9l-1.6.9a2.7 2.7 0 00-2.3-1.2 2.7 2.7 0 00-2.8 2.8c0 1.8 1.3 2.9 2.8 2.9 1 0 1.8-.4 2.4-1.2l1.4 1a4.5 4.5 0 01-3.8 1.9c-2.7 0-4.6-2-4.6-4.6 0-2.6 1.9-4.5 4.6-4.5 1.7 0 3.1.7 3.9 2z" fill="#7F7F7F"/></g><path fill-rule="evenodd" clip-rule="evenodd" d="M38.5 59h-1.8v-3.8L33 49.4h2.2l2.3 4 2.3-4h2l-3.4 5.8V59zM45.8 57.3h1.9c.9 0 1.4-.2 1.4-1.2 0-.9-.5-1.1-1.4-1.1h-1.9v2.3zm0-4h1.7c.8 0 1.5-.2 1.5-1.1 0-.9-.7-1.1-1.5-1.1h-1.7v2.2zm4.9-1.2c0 1-.6 1.7-1.2 2 .7.3 1.3 1.1 1.3 2.1 0 1.9-1 2.8-3 2.8h-3.6v-9.6h3.3c2 0 3.2.8 3.2 2.7zM54.5 59v-9.6h6.6v1.8h-4.8v2h4.6V55h-4.6v2.2H61V59h-6.6zM66.5 53.5h1.8c1 0 1.4-.4 1.4-1.2 0-.8-.5-1.1-1.4-1.1h-1.8v2.3zm5-1.2c0 1.6-1 2.7-2.6 2.8l2.6 3.9h-2L67 55.2h-.5V59h-1.7v-9.6h3.6c2 0 3 1 3 3zM77.6 51.1c-1 0-1.7.4-1.7 1.1 0 .7.7 1 1.8 1l.5.2c1.6.2 2.8 1 2.8 2.6 0 2-1.7 3-3.6 3a6 6 0 01-3.7-1.2l.9-1.5c.6.5 1.7 1 2.8 1 1 0 1.7-.4 1.7-1.1 0-.7-.6-.9-1.8-1.1l-.6-.1c-1.6-.3-2.7-1-2.7-2.7 0-1.9 1.6-2.9 3.5-2.9a6 6 0 013.4 1l-.8 1.5c-.7-.4-1.6-.8-2.5-.8zM84 59v-9.6h6.6v1.8h-4.9v2h4.6V55h-4.6v2.2h5V59H84z" fill="#7F7F7F"/><mask id="b" maskUnits="userSpaceOnUse" x="93" y="49" width="9" height="10"><path fill-rule="evenodd" clip-rule="evenodd" d="M93.2 49.9h8.3v9h-8.3v-9z" fill="#fff"/></mask><g mask="url(#b)"><path fill-rule="evenodd" clip-rule="evenodd" d="M101.5 51.9l-1.5.9a2.6 2.6 0 00-2.2-1.2c-1.6 0-2.8 1.1-2.8 2.8 0 1.8 1.2 2.9 2.8 2.9 1 0 1.7-.4 2.2-1.2l1.5 1c-.8 1.2-2.1 1.9-3.7 1.9-2.7 0-4.6-2-4.6-4.6 0-2.6 1.9-4.5 4.6-4.5 1.6 0 3 .7 3.7 2z" fill="#7F7F7F"/></g><path fill-rule="evenodd" clip-rule="evenodd" d="M108.3 59c-2.2 0-3.7-1.3-3.7-4v-5.6h1.7V55c0 1.5.8 2.2 2 2.2s2-.7 2-2.2v-5.6h1.7v5.7c0 2.6-1.5 3.9-3.7 3.9zM117.3 53.5h1.9c.9 0 1.4-.4 1.4-1.2 0-.8-.5-1.1-1.4-1.1h-1.9v2.3zm5-1.2c0 1.6-1 2.7-2.6 2.8l2.6 3.9h-2l-2.5-3.8h-.5V59h-1.6v-9.6h3.5c2 0 3 1 3 3z" fill="#7F7F7F"/><mask id="c" maskUnits="userSpaceOnUse" x="0" y="0" width="169" height="59"><path fill-rule="evenodd" clip-rule="evenodd" d="M0 59h168.7V.8H0V59z" fill="#fff"/></mask><g mask="url(#c)" fill-rule="evenodd" clip-rule="evenodd" fill="#7F7F7F"><path d="M125.2 59h1.5v-9.6h-1.5V59zM134.2 51.2V59h-1.8v-7.8h-2.8v-1.8h7.4v1.8h-2.8zM143.1 59h-1.8v-3.8l-3.6-5.8h2.2l2.3 4 2.3-4h2l-3.4 5.8V59zM18.2 15.8l-2-.3c-4.3-.7-7.4-1.5-7.4-4 0-2.7 2.9-4.3 6.8-4.3 3.5 0 6.5 1 9.2 2.5L29 4.5A25.3 25.3 0 0015.5.8C7.9.8 1.3 4.6 1.3 11.8c0 6.4 4.6 9 10.9 10l2.2.4c5 .8 7.5 1.7 7.5 4 0 2.8-3 4.3-7 4.3-4.2 0-8-1.5-10.6-3.3L0 32.3A25 25 0 0015 37c7.6 0 14.5-3.7 14.5-11.4 0-6-5-8.7-11.3-9.7zM50.2 18.8l15-17.3h-9L44.4 16H41V1.5H34V37H41V22.4h3.3L57 36.9h9.3L50.2 18.8zM129.3 1.5v21c0 5.8-3.3 8.4-8.1 8.4s-8.1-2.6-8.1-8.4v-21h-7v21.3c0 9.8 6.2 14.8 15 14.8 9 0 15.2-5 15.2-14.8V1.5h-7zM140 1.5v6.6h10.8V37h7V8h10.9V1.5H140z"/><path d="M82.9 29.9a11 11 0 110-22 11 11 0 010 22zm0-29a18 18 0 100 36 18 18 0 000-36z"/></g></svg>
